svgs/regular/bus-school.svg

<svg xmlns="http://www.w3.org/2000/svg" viewBox="0 0 512 512"><!--! Font Awesome Pro 6.6.0 by @fontawesome - https://fontawesome.com License - https://fontawesome.com/license (Commercial License) Copyright 2024 Fonticons, Inc. --><path d="M96 95l0 1 84.3 0c5.5-9.6 15.9-16 27.7-16l96 0c11.8 0 22.2 6.4 27.7 16L416 96l0-1c0-.4 0-.8-.1-1c0 0 0 0 0-.1C404.2 79.4 363.5 48 256 48C156.9 48 109.6 79.1 96 94.3c0 .2 0 .4 0 .7zm0 49l0 82.8c7.7-1.8 15.7-2.8 24-2.8l112 0 0-80L96 144zm320 82.8l0-82.8-136 0 0 80 112 0c8.3 0 16.3 1 24 2.8zM464 95l0 33 16 0c17.7 0 32 14.3 32 32l0 64c0 17.7-14.3 32-32 32l-13 0c17.9 18.7 29 44.1 29 72l0 56c0 29.8-20.4 54.9-48 62l0 42c0 13.3-10.7 24-24 24s-24-10.7-24-24l0-40-288 0 0 40c0 13.3-10.7 24-24 24s-24-10.7-24-24l0-42c-27.6-7.1-48-32.2-48-62l0-56c0-27.9 11-53.3 29-72l-13 0c-17.7 0-32-14.3-32-32l0-64c0-17.7 14.3-32 32-32l16 0 0-33c0-8.8 2-20.6 10.4-30.6C82.9 35.2 145.9 0 256 0C373.7 0 430.9 35.1 454.3 65c7.7 9.8 9.7 21.1 9.7 30zM112 336a32 32 0 1 1 64 0 32 32 0 1 1 -64 0zm224 0a32 32 0 1 1 64 0 32 32 0 1 1 -64 0zM120 272c-30.9 0-56 25.1-56 56l0 56c0 8.8 7.2 16 16 16l352 0c8.8 0 16-7.2 16-16l0-56c0-30.9-25.1-56-56-56l-272 0z"/></svg>

<svg xmlns="http://www.w3.org/2000/svg" viewBox="0 0 512 512"><!--! Font Awesome Pro 6.4.0 by @fontawesome - https://fontawesome.com License - https://fontawesome.com/license (Commercial License) Copyright 2023 Fonticons, Inc. --><path d="M96 95v1h84.3c5.5-9.6 15.9-16 27.7-16l96 0c11.8 0 22.2 6.4 27.7 16H416V95c0-.4 0-.8-.1-1l0-.1C404.2 79.4 363.5 48 256 48C156.9 48 109.6 79.1 96 94.3c0 .2 0 .4 0 .7zm0 49v82.8c7.7-1.8 15.7-2.8 24-2.8H232V144H96zm320 82.8V144H280v80H392c8.3 0 16.3 1 24 2.8zM464 95v33h16c17.7 0 32 14.3 32 32v64c0 17.7-14.3 32-32 32H467c17.9 18.7 29 44.1 29 72v56c0 29.8-20.4 54.9-48 62v42c0 13.3-10.7 24-24 24s-24-10.7-24-24V448H112v40c0 13.3-10.7 24-24 24s-24-10.7-24-24V446c-27.6-7.1-48-32.2-48-62V328c0-27.9 11-53.3 29-72H32c-17.7 0-32-14.3-32-32V160c0-17.7 14.3-32 32-32H48V95c0-8.8 2-20.6 10.4-30.6C82.9 35.2 145.9 0 256 0C373.7 0 430.9 35.1 454.3 65c7.7 9.8 9.7 21.1 9.7 30zM112 336a32 32 0 1 1 64 0 32 32 0 1 1 -64 0zm224 0a32 32 0 1 1 64 0 32 32 0 1 1 -64 0zM120 272c-30.9 0-56 25.1-56 56v56c0 8.8 7.2 16 16 16H432c8.8 0 16-7.2 16-16V328c0-30.9-25.1-56-56-56H120z"/></svg>
